(ORTHOGON STENCIL V2 1X5)
(T1  D=3.175 CR=0. TAPER=40DEG - ZMIN=-0.225 - CHAMFER MILL)
G0 G90 G94 G17
G21
G53 G0 Z0.

(2D CONTOUR2)
M5
M9
T1
S12000 M3
G4 P4.
G55
G0 X37.178 Y16.9
Z5.
Z1.
G1 Z-0.225 F51.
X37.605 F700.
Y17.455
X36.9
Y16.9
X37.178
G0 Z2.
X37.605 Y15.427
Z1.
G1 Z-0.225 F51.
Y15.705 F700.
X36.9
Y15.149
X37.605
Y15.427
G0 Z2.
X41.106
Z1.
G1 Z-0.225 F51.
Y15.705 F700.
X40.401
Y15.149
X41.106
Y15.427
G0 Z2.
X41.253 Y16.605
Z1.
G1 Z-0.225 F51.
X40.253 F700.
X40.208 Y16.612
X40.167 Y16.633
X40.134 Y16.665
X40.113 Y16.707
X40.106 Y16.752
Y17.602
X40.113 Y17.648
X40.134 Y17.689
X40.167 Y17.721
X40.208 Y17.742
X40.253 Y17.75
X41.253
X41.299 Y17.742
X41.34 Y17.721
X41.373 Y17.689
X41.393 Y17.648
X41.401 Y17.602
Y16.752
X41.393 Y16.707
X41.373 Y16.665
X41.34 Y16.633
X41.299 Y16.612
X41.253 Y16.605
G0 Z2.
X42.956 Y17.202
Z1.
G1 Z-0.225 F51.
Y17.405 F700.
X42.551
Y16.8
X42.956
Y17.202
G0 Z2.
X44.256 Y17.002
Z1.
G1 Z-0.225 F51.
Y17.405 F700.
X43.851
Y16.8
X44.256
Y17.002
G0 Z2.
X48.607 Y17.177
Z1.
G1 Z-0.225 F51.
Y17.455 F700.
X47.902
Y16.9
X48.607
Y17.177
G0 Z2.
Y15.427
Z1.
G1 Z-0.225 F51.
Y15.705 F700.
X47.902
Y15.149
X48.607
Y15.427
G0 Z2.
X52.107
Z1.
G1 Z-0.225 F51.
Y15.705 F700.
X51.402
Y15.149
X52.107
Y15.427
G0 Z2.
X52.255 Y16.605
Z1.
G1 Z-0.225 F51.
X51.255 F700.
X51.209 Y16.612
X51.168 Y16.633
X51.135 Y16.665
X51.114 Y16.707
X51.107 Y16.752
Y17.602
X51.114 Y17.648
X51.135 Y17.689
X51.168 Y17.721
X51.209 Y17.742
X51.255 Y17.75
X52.255
X52.3 Y17.742
X52.341 Y17.721
X52.374 Y17.689
X52.395 Y17.648
X52.402 Y17.602
Y16.752
X52.395 Y16.707
X52.374 Y16.665
X52.341 Y16.633
X52.3 Y16.612
X52.255 Y16.605
G0 Z2.
X54.758 Y17.102
Z1.
G1 Z-0.225 F51.
Y17.505 F700.
X54.352
Y16.9
X54.758
Y17.102
G0 Z2.
X56.058
Z1.
G1 Z-0.225 F51.
Y17.505 F700.
X55.653
Y16.9
X56.058
Y17.102
G0 Z2.
X58.608 Y17.682
Z1.
G1 Z-0.225 F51.
X58.615 Y17.728 F700.
X58.636 Y17.769
X58.669 Y17.801
X58.71 Y17.822
X58.756 Y17.83
X59.756
X59.801 Y17.822
X59.842 Y17.801
X59.875 Y17.769
X59.896 Y17.728
X59.903 Y17.682
Y16.832
X59.896 Y16.787
X59.875 Y16.745
X59.842 Y16.713
X59.801 Y16.692
X59.756 Y16.685
X58.756
X58.71 Y16.692
X58.669 Y16.713
X58.636 Y16.745
X58.615 Y16.787
X58.608 Y16.832
Y17.652
Y17.682
G0 Z2.
X59.181 Y15.229
Z1.
G1 Z-0.225 F51.
X59.608 F700.
Y15.785
X58.903
Y15.229
X59.181
G0 Z2.
X62.681
Z1.
G1 Z-0.225 F51.
X63.109 F700.
Y15.785
X62.403
Y15.229
X62.681
G0 Z2.
X63.256 Y16.685
Z1.
G1 Z-0.225 F51.
X62.256 F700.
X62.21 Y16.692
X62.169 Y16.713
X62.137 Y16.745
X62.116 Y16.787
X62.108 Y16.832
Y17.682
X62.116 Y17.728
X62.137 Y17.769
X62.169 Y17.801
X62.21 Y17.822
X62.256 Y17.83
X63.256
X63.302 Y17.822
X63.343 Y17.801
X63.375 Y17.769
X63.396 Y17.728
X63.403 Y17.682
Y16.832
X63.396 Y16.787
X63.375 Y16.745
X63.343 Y16.713
X63.302 Y16.692
X63.256 Y16.685
G0 Z2.
X64.949 Y15.412
Z1.
G1 Z-0.225 F51.
Y15.815 F700.
X64.544
Y15.209
X64.949
Y15.412
G0 Z2.
X66.249 Y15.612
Z1.
G1 Z-0.225 F51.
Y15.815 F700.
X65.844
Y15.209
X66.249
Y15.612
G0 Z2.
X66.959 Y17.102
Z1.
G1 Z-0.225 F51.
Y17.505 F700.
X66.554
Y16.9
X66.959
Y17.102
G0 Z2.
X68.259
Z1.
G1 Z-0.225 F51.
Y17.505 F700.
X67.854
Y16.9
X68.259
Y17.102
G0 Z2.
X66.249 Y21.913
Z1.
G1 Z-0.225 F51.
Y22.315 F700.
X65.844
Y21.71
X66.249
Y21.913
G0 Z2.
X64.949 Y22.113
Z1.
G1 Z-0.225 F51.
Y22.315 F700.
X64.544
Y21.71
X64.949
Y22.113
G0 Z2.
X62.681 Y22.285
Z1.
G1 Z-0.225 F51.
X62.403 F700.
Y21.73
X63.109
Y22.285
X62.681
G0 Z2.
X63.109 Y23.758
Z1.
G1 Z-0.225 F51.
Y24.036 F700.
X62.403
Y23.48
X63.109
Y23.758
G0 Z2.
X66.959 Y23.603
Z1.
G1 Z-0.225 F51.
Y24.006 F700.
X66.554
Y23.4
X66.959
Y23.603
G0 Z2.
X68.259 Y23.803
Z1.
G1 Z-0.225 F51.
Y24.006 F700.
X67.854
Y23.4
X68.259
Y23.803
G0 Z2.
X66.249 Y28.614
Z1.
G1 Z-0.225 F51.
Y28.816 F700.
X65.844
Y28.211
X66.249
Y28.614
G0 Z2.
X64.949
Z1.
G1 Z-0.225 F51.
Y28.816 F700.
X64.544
Y28.211
X64.949
Y28.614
G0 Z2.
X63.109 Y28.509
Z1.
G1 Z-0.225 F51.
Y28.786 F700.
X62.403
Y28.231
X63.109
Y28.509
G0 Z2.
Y30.259
Z1.
G1 Z-0.225 F51.
Y30.536 F700.
X62.403
Y29.981
X63.109
Y30.259
G0 Z2.
X66.959 Y30.104
Z1.
G1 Z-0.225 F51.
Y30.506 F700.
X66.554
Y29.901
X66.959
Y30.104
G0 Z2.
X68.259
Z1.
G1 Z-0.225 F51.
Y30.506 F700.
X67.854
Y29.901
X68.259
Y30.104
G0 Z2.
X0. Y34.852
Z1.
G1 Z-0.225 F51.
X75.007 F700.
X75.053 Y34.844
X75.094 Y34.824
X75.127 Y34.791
X75.148 Y34.75
X75.155 Y34.704
Y0.
X75.148 Y-0.046
X75.127 Y-0.087
X75.094 Y-0.119
X75.053 Y-0.14
X75.007 Y-0.147
X0.
X-0.046 Y-0.14
X-0.087 Y-0.119
X-0.119 Y-0.087
X-0.14 Y-0.046
X-0.147 Y0.
Y34.704
X-0.14 Y34.75
X-0.119 Y34.791
X-0.087 Y34.824
X-0.046 Y34.844
X0. Y34.852
G0 Z2.
X8.524 Y25.846
Z1.
G1 Z-0.225 F51.
G3 X10.858 Y28.204 I-0.024 J2.358 F700.
X6.143 I-2.358 J0.
X8.524 Y25.846 I2.358 J0.
G0 Z2.
X26.604 Y23.678
Z1.
G1 Z-0.225 F51.
Y23.956 F700.
X25.899
Y23.4
X26.604
Y23.678
G0 Z2.
X26.176 Y21.65
Z1.
G1 Z-0.225 F51.
X26.604 F700.
Y22.205
X25.899
Y21.65
X26.176
G0 Z2.
X29.677
Z1.
G1 Z-0.225 F51.
X30.104 F700.
Y22.205
X29.399
Y21.65
X29.677
G0 Z2.
X30.104 Y23.678
Z1.
G1 Z-0.225 F51.
Y23.956 F700.
X29.399
Y23.4
X30.104
Y23.678
G0 Z2.
X31.755 Y23.903
Z1.
G1 Z-0.225 F51.
Y24.106 F700.
X31.349
Y23.5
X31.755
Y23.903
G0 Z2.
X33.055 Y23.703
Z1.
G1 Z-0.225 F51.
Y24.106 F700.
X32.65
Y23.5
X33.055
Y23.703
G0 Z2.
X37.605 Y23.678
Z1.
G1 Z-0.225 F51.
Y23.956 F700.
X36.9
Y23.4
X37.605
Y23.678
G0 Z2.
X37.178 Y21.65
Z1.
G1 Z-0.225 F51.
X37.605 F700.
Y22.205
X36.9
Y21.65
X37.178
G0 Z2.
X41.106 Y21.928
Z1.
G1 Z-0.225 F51.
Y22.205 F700.
X40.401
Y21.65
X41.106
Y21.928
G0 Z2.
Y23.678
Z1.
G1 Z-0.225 F51.
Y23.956 F700.
X40.401
Y23.4
X41.106
Y23.678
G0 Z2.
X42.956 Y23.503
Z1.
G1 Z-0.225 F51.
Y23.906 F700.
X42.551
Y23.3
X42.956
Y23.503
G0 Z2.
X44.256 Y23.703
Z1.
G1 Z-0.225 F51.
Y23.906 F700.
X43.851
Y23.3
X44.256
Y23.703
G0 Z2.
X48.607 Y23.678
Z1.
G1 Z-0.225 F51.
Y23.956 F700.
X47.902
Y23.4
X48.607
Y23.678
G0 Z2.
Y21.928
Z1.
G1 Z-0.225 F51.
Y22.205 F700.
X47.902
Y21.65
X48.607
Y21.928
G0 Z2.
X52.107
Z1.
G1 Z-0.225 F51.
Y22.205 F700.
X51.402
Y21.65
X52.107
Y21.928
G0 Z2.
X51.68 Y23.4
Z1.
G1 Z-0.225 F51.
X52.107 F700.
Y23.956
X51.402
Y23.4
X51.68
G0 Z2.
X54.758 Y23.803
Z1.
G1 Z-0.225 F51.
Y24.006 F700.
X54.352
Y23.4
X54.758
Y23.803
G0 Z2.
X56.058
Z1.
G1 Z-0.225 F51.
Y24.006 F700.
X55.653
Y23.4
X56.058
Y23.803
G0 Z2.
X59.181 Y24.036
Z1.
G1 Z-0.225 F51.
X58.903 F700.
Y23.48
X59.608
Y24.036
X59.181
G0 Z2.
X59.608 Y22.008
Z1.
G1 Z-0.225 F51.
Y22.285 F700.
X58.903
Y21.73
X59.608
Y22.008
G0 Z2.
X59.181 Y28.231
Z1.
G1 Z-0.225 F51.
X59.608 F700.
Y28.786
X58.903
Y28.231
X59.181
G0 Z2.
X59.608 Y30.259
Z1.
G1 Z-0.225 F51.
Y30.536 F700.
X58.903
Y29.981
X59.608
Y30.259
G0 Z2.
X56.058 Y30.304
Z1.
G1 Z-0.225 F51.
Y30.506 F700.
X55.653
Y29.901
X56.058
Y30.304
G0 Z2.
X54.758 Y30.104
Z1.
G1 Z-0.225 F51.
Y30.506 F700.
X54.352
Y29.901
X54.758
Y30.104
G0 Z2.
X52.107 Y30.179
Z1.
G1 Z-0.225 F51.
Y30.456 F700.
X51.402
Y29.901
X52.107
Y30.179
G0 Z2.
X51.68 Y28.706
Z1.
G1 Z-0.225 F51.
X51.402 F700.
Y28.151
X52.107
Y28.706
X51.68
G0 Z2.
X48.179
Z1.
G1 Z-0.225 F51.
X47.902 F700.
Y28.151
X48.607
Y28.706
X48.179
G0 Z2.
Y30.456
Z1.
G1 Z-0.225 F51.
X47.902 F700.
Y29.901
X48.607
Y30.456
X48.179
G0 Z2.
X44.256 Y30.004
Z1.
G1 Z-0.225 F51.
Y30.406 F700.
X43.851
Y29.801
X44.256
Y30.004
G0 Z2.
X42.956
Z1.
G1 Z-0.225 F51.
Y30.406 F700.
X42.551
Y29.801
X42.956
Y30.004
G0 Z2.
X41.106 Y30.179
Z1.
G1 Z-0.225 F51.
Y30.456 F700.
X40.401
Y29.901
X41.106
Y30.179
G0 Z2.
Y28.429
Z1.
G1 Z-0.225 F51.
Y28.706 F700.
X40.401
Y28.151
X41.106
Y28.429
G0 Z2.
X37.178 Y28.706
Z1.
G1 Z-0.225 F51.
X36.9 F700.
Y28.151
X37.605
Y28.706
X37.178
G0 Z2.
Y29.901
Z1.
G1 Z-0.225 F51.
X37.605 F700.
Y30.456
X36.9
Y29.901
X37.178
G0 Z2.
X33.055 Y30.204
Z1.
G1 Z-0.225 F51.
Y30.606 F700.
X32.65
Y30.001
X33.055
Y30.204
G0 Z2.
X31.755
Z1.
G1 Z-0.225 F51.
Y30.606 F700.
X31.349
Y30.001
X31.755
Y30.204
G0 Z2.
X30.104 Y30.179
Z1.
G1 Z-0.225 F51.
Y30.456 F700.
X29.399
Y29.901
X30.104
Y30.179
G0 Z2.
Y28.429
Z1.
G1 Z-0.225 F51.
Y28.706 F700.
X29.399
Y28.151
X30.104
Y28.429
G0 Z2.
X26.604
Z1.
G1 Z-0.225 F51.
Y28.706 F700.
X25.899
Y28.151
X26.604
Y28.429
G0 Z2.
X26.176 Y29.901
Z1.
G1 Z-0.225 F51.
X26.604 F700.
Y30.456
X25.899
Y29.901
X26.176
G0 Z2.
X26.831 Y17.726
Z1.
G1 Z-0.225 F51.
X26.859 Y17.703 F700.
X26.881 Y17.673
X26.894 Y17.639
X26.899 Y17.602
Y16.752
X26.892 Y16.707
X26.871 Y16.665
X26.838 Y16.633
X26.797 Y16.612
X26.751 Y16.605
X25.751
X25.706 Y16.612
X25.665 Y16.633
X25.632 Y16.665
X25.611 Y16.707
X25.604 Y16.752
Y17.602
X25.611 Y17.648
X25.632 Y17.689
X25.665 Y17.721
X25.706 Y17.742
X25.751 Y17.75
X26.751
X26.793 Y17.744
X26.831 Y17.726
G0 Z2.
X26.604 Y15.427
Z1.
G1 Z-0.225 F51.
Y15.705 F700.
X25.899
Y15.149
X26.604
Y15.427
G0 Z2.
X30.104
Z1.
G1 Z-0.225 F51.
Y15.705 F700.
X29.399
Y15.149
X30.104
Y15.427
G0 Z2.
X29.677 Y16.9
Z1.
G1 Z-0.225 F51.
X30.104 F700.
Y17.455
X29.399
Y16.9
X29.677
G0 Z2.
X31.755 Y17.202
Z1.
G1 Z-0.225 F51.
Y17.605 F700.
X31.349
Y17.
X31.755
Y17.202
G0 Z2.
X33.055
Z1.
G1 Z-0.225 F51.
Y17.605 F700.
X32.65
Y17.
X33.055
Y17.202
G0 Z2.
X8.559 Y3.344
Z1.
G1 Z-0.225 F51.
G3 X10.858 Y5.701 I-0.059 J2.357 F700.
X6.143 I-2.358 J0.
X8.559 Y3.344 I2.358 J0.
G0 Z5.

(2D CONTOUR2 2)
G55
G0 X48.179 Y9.204
Z5.
Z1.
G1 Z-0.225 F51.
X47.902 F700.
Y8.648
X48.607
Y9.204
X48.179
G0 Z2.
Y10.399
Z1.
G1 Z-0.225 F51.
X48.607 F700.
Y10.954
X47.902
Y10.399
X48.179
G0 Z2.
X51.68 Y10.954
Z1.
G1 Z-0.225 F51.
X51.402 F700.
Y10.399
X52.107
Y10.954
X51.68
G0 Z2.
X52.107 Y8.926
Z1.
G1 Z-0.225 F51.
Y9.204 F700.
X51.402
Y8.648
X52.107
Y8.926
G0 Z2.
X54.758 Y10.801
Z1.
G1 Z-0.225 F51.
Y11.004 F700.
X54.352
Y10.399
X54.758
Y10.801
G0 Z2.
X56.058 Y10.601
Z1.
G1 Z-0.225 F51.
Y11.004 F700.
X55.653
Y10.399
X56.058
Y10.601
G0 Z2.
X59.608 Y10.756
Z1.
G1 Z-0.225 F51.
Y11.034 F700.
X58.903
Y10.479
X59.608
Y10.756
G0 Z2.
X59.181 Y8.728
Z1.
G1 Z-0.225 F51.
X59.608 F700.
Y9.284
X58.903
Y8.728
X59.181
G0 Z2.
X62.681
Z1.
G1 Z-0.225 F51.
X63.109 F700.
Y9.284
X62.403
Y8.728
X62.681
G0 Z2.
Y10.479
Z1.
G1 Z-0.225 F51.
X63.109 F700.
Y11.034
X62.403
Y10.479
X62.681
G0 Z2.
X64.949 Y9.111
Z1.
G1 Z-0.225 F51.
Y9.314 F700.
X64.544
Y8.708
X64.949
Y9.111
G0 Z2.
X66.249 Y8.911
Z1.
G1 Z-0.225 F51.
Y9.314 F700.
X65.844
Y8.708
X66.249
Y8.911
G0 Z2.
X66.959 Y10.601
Z1.
G1 Z-0.225 F51.
Y11.004 F700.
X66.554
Y10.399
X66.959
Y10.601
G0 Z2.
X68.259 Y10.801
Z1.
G1 Z-0.225 F51.
Y11.004 F700.
X67.854
Y10.399
X68.259
Y10.801
G0 Z2.
Y4.301
Z1.
G1 Z-0.225 F51.
Y4.503 F700.
X67.854
Y3.898
X68.259
Y4.301
G0 Z2.
X66.959
Z1.
G1 Z-0.225 F51.
Y4.503 F700.
X66.554
Y3.898
X66.959
Y4.301
G0 Z2.
X66.249 Y2.41
Z1.
G1 Z-0.225 F51.
Y2.813 F700.
X65.844
Y2.208
X66.249
Y2.41
G0 Z2.
X64.949 Y2.61
Z1.
G1 Z-0.225 F51.
Y2.813 F700.
X64.544
Y2.208
X64.949
Y2.61
G0 Z2.
X62.681 Y2.228
Z1.
G1 Z-0.225 F51.
X63.109 F700.
Y2.783
X62.403
Y2.228
X62.681
G0 Z2.
X63.109 Y4.256
Z1.
G1 Z-0.225 F51.
Y4.533 F700.
X62.403
Y3.978
X63.109
Y4.256
G0 Z2.
X59.181 Y4.533
Z1.
G1 Z-0.225 F51.
X58.903 F700.
Y3.978
X59.608
Y4.533
X59.181
G0 Z2.
X59.608 Y2.505
Z1.
G1 Z-0.225 F51.
Y2.783 F700.
X58.903
Y2.228
X59.608
Y2.505
G0 Z2.
X56.058 Y4.301
Z1.
G1 Z-0.225 F51.
Y4.503 F700.
X55.653
Y3.898
X56.058
Y4.301
G0 Z2.
X54.758 Y4.101
Z1.
G1 Z-0.225 F51.
Y4.503 F700.
X54.352
Y3.898
X54.758
Y4.101
G0 Z2.
X52.107 Y4.176
Z1.
G1 Z-0.225 F51.
Y4.453 F700.
X51.402
Y3.898
X52.107
Y4.176
G0 Z2.
X51.68 Y2.148
Z1.
G1 Z-0.225 F51.
X52.107 F700.
Y2.703
X51.402
Y2.148
X51.68
G0 Z2.
X48.179 Y2.703
Z1.
G1 Z-0.225 F51.
X47.902 F700.
Y2.148
X48.607
Y2.703
X48.179
G0 Z2.
Y4.453
Z1.
G1 Z-0.225 F51.
X47.902 F700.
Y3.898
X48.607
Y4.453
X48.179
G0 Z2.
X44.256 Y4.001
Z1.
G1 Z-0.225 F51.
Y4.403 F700.
X43.851
Y3.798
X44.256
Y4.001
G0 Z2.
X42.956
Z1.
G1 Z-0.225 F51.
Y4.403 F700.
X42.551
Y3.798
X42.956
Y4.001
G0 Z2.
X41.106 Y4.176
Z1.
G1 Z-0.225 F51.
Y4.453 F700.
X40.401
Y3.898
X41.106
Y4.176
G0 Z2.
X40.678 Y2.148
Z1.
G1 Z-0.225 F51.
X41.106 F700.
Y2.703
X40.401
Y2.148
X40.678
G0 Z2.
X37.605 Y2.425
Z1.
G1 Z-0.225 F51.
Y2.703 F700.
X36.9
Y2.148
X37.605
Y2.425
G0 Z2.
X37.178 Y4.453
Z1.
G1 Z-0.225 F51.
X36.9 F700.
Y3.898
X37.605
Y4.453
X37.178
G0 Z2.
X33.055 Y4.401
Z1.
G1 Z-0.225 F51.
Y4.603 F700.
X32.65
Y3.998
X33.055
Y4.401
G0 Z2.
X31.755 Y4.201
Z1.
G1 Z-0.225 F51.
Y4.603 F700.
X31.349
Y3.998
X31.755
Y4.201
G0 Z2.
X30.104 Y4.176
Z1.
G1 Z-0.225 F51.
Y4.453 F700.
X29.399
Y3.898
X30.104
Y4.176
G0 Z2.
Y2.425
Z1.
G1 Z-0.225 F51.
Y2.703 F700.
X29.399
Y2.148
X30.104
Y2.425
G0 Z2.
X26.176 Y2.148
Z1.
G1 Z-0.225 F51.
X26.604 F700.
Y2.703
X25.899
Y2.148
X26.176
G0 Z2.
X26.604 Y4.176
Z1.
G1 Z-0.225 F51.
Y4.453 F700.
X25.899
Y3.898
X26.604
Y4.176
G0 Z2.
Y8.926
Z1.
G1 Z-0.225 F51.
Y9.204 F700.
X25.899
Y8.648
X26.604
Y8.926
G0 Z2.
X26.176 Y10.399
Z1.
G1 Z-0.225 F51.
X26.604 F700.
Y10.954
X25.899
Y10.399
X26.176
G0 Z2.
X30.104 Y10.676
Z1.
G1 Z-0.225 F51.
Y10.954 F700.
X29.399
Y10.399
X30.104
Y10.676
G0 Z2.
X31.755 Y10.701
Z1.
G1 Z-0.225 F51.
Y11.104 F700.
X31.349
Y10.499
X31.755
Y10.701
G0 Z2.
X33.055
Z1.
G1 Z-0.225 F51.
Y11.104 F700.
X32.65
Y10.499
X33.055
Y10.701
G0 Z2.
X30.104 Y8.926
Z1.
G1 Z-0.225 F51.
Y9.204 F700.
X29.399
Y8.648
X30.104
Y8.926
G0 Z2.
X37.178 Y8.648
Z1.
G1 Z-0.225 F51.
X37.605 F700.
Y9.204
X36.9
Y8.648
X37.178
G0 Z2.
X37.605 Y10.676
Z1.
G1 Z-0.225 F51.
Y10.954 F700.
X36.9
Y10.399
X37.605
Y10.676
G0 Z2.
X41.106
Z1.
G1 Z-0.225 F51.
Y10.954 F700.
X40.401
Y10.399
X41.106
Y10.676
G0 Z2.
X42.956 Y10.701
Z1.
G1 Z-0.225 F51.
Y10.904 F700.
X42.551
Y10.299
X42.956
Y10.701
G0 Z2.
X44.256
Z1.
G1 Z-0.225 F51.
Y10.904 F700.
X43.851
Y10.299
X44.256
Y10.701
G0 Z2.
X41.106 Y8.926
Z1.
G1 Z-0.225 F51.
Y9.204 F700.
X40.401
Y8.648
X41.106
Y8.926
G0 Z5.

G53 Z0.
M30
